images/busd.svg

<svg height="250" viewBox="0 0 250 250" width="250" xmlns="http://www.w3.org/2000/svg"><path d="m124.980469 0 31.167969 31.175781-78.222657 78.242188-31.175781-31.175781zm-78.078125 171.875 31.167968 31.175781 125-125-31.171874-31.175781zm46.875 46.875 31.199218 31.25 125-125-31.171874-31.175781zm-31.429688-93.75-31.175781-31.175781-31.16796875 31.175781 31.16796875 31.167969zm0 0" fill="#f0b90b"/></svg>

<svg xmlns="http://www.w3.org/2000/svg" xmlns:xlink="http://www.w3.org/1999/xlink" width="250px" height="250px" viewBox="0 0 250 250" version="1.1">
<g id="surface1">
<path style=" stroke:none;fill-rule:nonzero;fill:rgb(94.117647%,72.549021%,4.313726%);fill-opacity:1;" d="M 124.980469 0 L 156.148438 31.175781 L 77.925781 109.417969 L 46.75 78.242188 Z M 46.902344 171.875 L 78.070312 203.050781 L 203.070312 78.050781 L 171.898438 46.875 Z M 93.777344 218.75 L 124.976562 250 L 249.976562 125 L 218.804688 93.824219 Z M 62.347656 125 L 31.171875 93.824219 L 0.00390625 125 L 31.171875 156.167969 Z M 62.347656 125 "/>
</g>
</svg>
